apps/scalable/devede.svg

<svg xmlns="http://www.w3.org/2000/svg" style="isolation:isolate" width="256" height="256"><defs><filter id="a" width="270.648" height="254.338" x="-7.32" y="2.95" filterUnits="userSpaceOnUse"><feGaussianBlur xmlns="http://www.w3.org/2000/svg" in="SourceGraphic" stdDeviation="4.294"/><feOffset xmlns="http://www.w3.org/2000/svg" dy="4" result="pf_100_offsetBlur"/><feFlood xmlns="http://www.w3.org/2000/svg" flood-opacity=".4"/><feComposite xmlns="http://www.w3.org/2000/svg" in2="pf_100_offsetBlur" operator="in" result="pf_100_dropShadow"/><feBlend xmlns="http://www.w3.org/2000/svg" in="SourceGraphic" in2="pf_100_dropShadow"/></filter></defs><path fill="#5D5D5D" d="M165.685 11.947c74.055 0 84.639 10.557 84.639 84.544v59.251c0 73.986-10.584 84.543-84.639 84.543h-75.37c-74.055 0-84.639-10.557-84.639-84.543V96.491c0-73.987 10.584-84.544 84.639-84.544h75.37z" filter="url(#a)"/><g opacity=".4"><linearGradient id="b" x1=".517" x2=".517" y2="1"><stop offset="0%" stop-color="#fff"/><stop offset="12.5%" stop-opacity=".098" stop-color="#fff"/><stop offset="92.5%" stop-opacity=".098"/><stop offset="100%" stop-opacity=".498"/></linearGradient><path fill="none" stroke="url(#b)" stroke-linecap="round" stroke-linejoin="round" stroke-width="4.077" d="M165.685 11.947c74.055 0 84.639 10.557 84.639 84.544v59.251c0 73.986-10.584 84.543-84.639 84.543h-75.37c-74.055 0-84.639-10.557-84.639-84.543V96.491c0-73.987 10.584-84.544 84.639-84.544h75.37z" vector-effect="non-scaling-stroke"/></g><path fill="#FFF" d="M5.676 126.116v29.626c0 73.986 10.584 84.543 84.639 84.543h75.37c74.055 0 84.639-10.557 84.639-84.543v-29.626H5.676z" opacity=".1"/><linearGradient id="c" x1=".234" x2=".754" y1=".165" y2=".825" gradientTransform="matrix(165 0 0 165 45.5 43.5)" gradientUnits="userSpaceOnUse"><stop offset="0%" stop-color="#dedbde"/><stop offset="50%" stop-color="#e6e6e6"/><stop offset="100%" stop-color="#d2d2d2"/></linearGradient><path fill="url(#c)" d="M210.5 126c0-45.729-36.771-82.5-82.5-82.5S45.5 80.271 45.5 126s36.771 82.5 82.5 82.5 82.5-36.771 82.5-82.5zm-52.317 0c0 16.613-13.237 30.183-30.183 30.183-17.278 0-30.183-13.906-30.183-30.183 0-16.61 12.24-30.183 30.183-30.183 17.943 0 30.183 13.902 30.183 30.183z"/><defs><filter id="d" width="171" height="75.333" x="42" y="161.5" filterUnits="userSpaceOnUse"><feGaussianBlur xmlns="http://www.w3.org/2000/svg" in="SourceGraphic" stdDeviation="4.294"/><feOffset xmlns="http://www.w3.org/2000/svg" dy="4" result="pf_100_offsetBlur"/><feFlood xmlns="http://www.w3.org/2000/svg" flood-opacity=".4"/><feComposite xmlns="http://www.w3.org/2000/svg" in2="pf_100_offsetBlur" operator="in" result="pf_100_dropShadow"/><feBlend xmlns="http://www.w3.org/2000/svg" in="SourceGraphic" in2="pf_100_dropShadow"/></filter></defs><path d="M63.311 170.5h128.378a8.315 8.315 0 0 1 8.311 8.311v32.712c0 4.586-3.724 8.31-8.311 8.31H63.311c-4.587 0-8.311-3.724-8.311-8.31v-32.712a8.315 8.315 0 0 1 8.311-8.311z" fill="#46a926" filter="url(#d)"/><path fill="#F7F7F7" fill-rule="evenodd" d="M63.45 207.207v-24.5h8.26q3.08 0 5.442 1.032 2.363 1.033 3.728 2.818 1.365 1.785 2.03 3.902.665 2.118.665 4.498 0 1.75-.367 3.43-.368 1.68-1.278 3.307-.91 1.628-2.24 2.835-1.33 1.208-3.43 1.943-2.1.735-4.69.735h-8.12zm4.725-4.48h3.955q3.325 0 4.935-2.328 1.61-2.327 1.61-5.442 0-3.185-1.575-5.478-1.575-2.292-4.585-2.292h-4.34v15.54zm27.44 4.9q-3.885 0-6.125-2.485t-2.24-6.895q0-4.305 2.258-6.825 2.257-2.52 6.107-2.52 3.5 0 5.705 2.152 2.205 2.153 2.205 6.283 0 1.715-.14 2.695H91.73q.14 1.68 1.243 2.642 1.102.963 2.642.963 2.38 0 3.85-1.855l2.8 2.835q-2.485 3.01-6.65 3.01zm-3.85-11.445h7.315q-.21-1.54-1.137-2.415-.928-.875-2.328-.875-3.43 0-3.85 3.29zm27.615 11.025h-4.55l-8.68-24.5h5.11l5.39 16.03q.21.63.49 1.68.14-.63.455-1.68l5.39-16.03h5.04l-8.645 24.5zm19.81.42q-3.885 0-6.125-2.485t-2.24-6.895q0-4.305 2.257-6.825 2.258-2.52 6.108-2.52 3.5 0 5.705 2.152 2.205 2.153 2.205 6.283 0 1.715-.14 2.695h-11.655q.14 1.68 1.243 2.642 1.102.963 2.642.963 2.38 0 3.85-1.855l2.8 2.835q-2.485 3.01-6.65 3.01zm-3.85-11.445h7.315q-.21-1.54-1.138-2.415-.927-.875-2.327-.875-3.43 0-3.85 3.29zm16.135 11.025v-24.5h8.26q3.08 0 5.443 1.032 2.362 1.033 3.727 2.818 1.365 1.785 2.03 3.902.665 2.118.665 4.498 0 1.75-.367 3.43-.368 1.68-1.278 3.307-.91 1.628-2.24 2.835-1.33 1.208-3.43 1.943-2.1.735-4.69.735h-8.12zm4.725-4.48h3.955q3.325 0 4.935-2.328 1.61-2.327 1.61-5.442 0-3.185-1.575-5.478-1.575-2.292-4.585-2.292h-4.34v15.54zm27.44 4.9q-3.885 0-6.125-2.485t-2.24-6.895q0-4.305 2.257-6.825 2.258-2.52 6.108-2.52 3.5 0 5.705 2.152 2.205 2.153 2.205 6.283 0 1.715-.14 2.695h-11.655q.14 1.68 1.243 2.642 1.102.963 2.642.963 2.38 0 3.85-1.855l2.8 2.835q-2.485 3.01-6.65 3.01zm-3.85-11.445h7.315q-.21-1.54-1.138-2.415-.927-.875-2.327-.875-3.43 0-3.85 3.29z"/></svg>

<svg xmlns="http://www.w3.org/2000/svg" style="isolation:isolate" width="256" height="256" viewBox="0 0 256 256">
 <defs>
  <filter id="TgAdJQSLIbN14Ori6zG4wsfhvYMgzGUE" width="270.648" height="254.338" x="-7.32" y="2.95" filterUnits="userSpaceOnUse">
   <feGaussianBlur xmlns="http://www.w3.org/2000/svg" in="SourceGraphic" stdDeviation="4.294"/>
   <feOffset xmlns="http://www.w3.org/2000/svg" dx="0" dy="4" result="pf_100_offsetBlur"/>
   <feFlood xmlns="http://www.w3.org/2000/svg" flood-opacity=".4"/>
   <feComposite xmlns="http://www.w3.org/2000/svg" in2="pf_100_offsetBlur" operator="in" result="pf_100_dropShadow"/>
   <feBlend xmlns="http://www.w3.org/2000/svg" in="SourceGraphic" in2="pf_100_dropShadow" mode="normal"/>
  </filter>
 </defs>
 <g filter="url(#TgAdJQSLIbN14Ori6zG4wsfhvYMgzGUE)">
  <path fill="#5D5D5D" d="M 165.685 11.947 C 239.74 11.947 250.324 22.504 250.324 96.491 L 250.324 155.742 C 250.324 229.728 239.74 240.285 165.685 240.285 L 90.315 240.285 C 16.26 240.285 5.676 229.728 5.676 155.742 L 5.676 96.491 C 5.676 22.504 16.26 11.947 90.315 11.947 L 165.685 11.947 Z"/>
 </g>
 <g opacity=".4">
  <linearGradient id="_lgradient_6" x1=".517" x2=".517" y1="0" y2="1">
   <stop offset="0%" style="stop-color:rgb(255,255,255)"/>
   <stop offset="12.5%" stop-opacity=".098" style="stop-color:rgb(255,255,255)"/>
   <stop offset="92.5%" stop-opacity=".098" style="stop-color:rgb(0,0,0)"/>
   <stop offset="100%" stop-opacity=".498" style="stop-color:rgb(0,0,0)"/>
  </linearGradient>
  <path fill="none" stroke="url(#_lgradient_6)" stroke-linecap="round" stroke-linejoin="round" stroke-width="4.077" d="M 165.685 11.947 C 239.74 11.947 250.324 22.504 250.324 96.491 L 250.324 155.742 C 250.324 229.728 239.74 240.285 165.685 240.285 L 90.315 240.285 C 16.26 240.285 5.676 229.728 5.676 155.742 L 5.676 96.491 C 5.676 22.504 16.26 11.947 90.315 11.947 L 165.685 11.947 Z" vector-effect="non-scaling-stroke"/>
 </g>
 <g opacity=".1">
  <path fill="#FFFFFF" d="M 5.676 126.116 L 5.676 155.742 C 5.676 229.728 16.26 240.285 90.315 240.285 L 165.685 240.285 C 239.74 240.285 250.324 229.728 250.324 155.742 L 250.324 126.116 L 5.676 126.116 Z"/>
 </g>
 <linearGradient id="_lgradient_7" x1=".234" x2=".754" y1=".165" y2=".825" gradientTransform="matrix(165,0,0,165,45.5,43.5)" gradientUnits="userSpaceOnUse">
  <stop offset="0%" style="stop-color:rgb(222,219,222)"/>
  <stop offset="50%" style="stop-color:rgb(230,230,230)"/>
  <stop offset="100%" style="stop-color:rgb(210,210,210)"/>
 </linearGradient>
 <path fill="url(#_lgradient_7)" d="M 210.5 126 C 210.5 80.271 173.729 43.5 128 43.5 C 82.271 43.5 45.5 80.271 45.5 126 C 45.5 171.729 82.271 208.5 128 208.5 C 173.729 208.5 210.5 171.729 210.5 126 Z M 158.183 126 C 158.183 142.613 144.946 156.183 128 156.183 C 110.722 156.183 97.817 142.277 97.817 126 C 97.817 109.39 110.057 95.817 128 95.817 C 145.943 95.817 158.183 109.719 158.183 126 Z"/>
 <defs>
  <filter id="oUXrd40q0FMNDZ3mjHHpGBDbcccFDBlk" width="171" height="75.333" x="42" y="161.5" filterUnits="userSpaceOnUse">
   <feGaussianBlur xmlns="http://www.w3.org/2000/svg" in="SourceGraphic" stdDeviation="4.294"/>
   <feOffset xmlns="http://www.w3.org/2000/svg" dx="0" dy="4" result="pf_100_offsetBlur"/>
   <feFlood xmlns="http://www.w3.org/2000/svg" flood-opacity=".4"/>
   <feComposite xmlns="http://www.w3.org/2000/svg" in2="pf_100_offsetBlur" operator="in" result="pf_100_dropShadow"/>
   <feBlend xmlns="http://www.w3.org/2000/svg" in="SourceGraphic" in2="pf_100_dropShadow" mode="normal"/>
  </filter>
 </defs>
 <g filter="url(#oUXrd40q0FMNDZ3mjHHpGBDbcccFDBlk)">
  <path d="M 63.311 170.5 L 191.689 170.5 C 196.276 170.5 200 174.224 200 178.811 L 200 211.523 C 200 216.109 196.276 219.833 191.689 219.833 L 63.311 219.833 C 58.724 219.833 55 216.109 55 211.523 L 55 178.811 C 55 174.224 58.724 170.5 63.311 170.5 Z" style="fill:#46A926"/>
 </g>
 <path fill="#F7F7F7" fill-rule="evenodd" d="M 63.45 207.207 L 63.45 182.707 L 71.71 182.707 L 71.71 182.707 Q 74.79 182.707 77.152 183.739 L 77.152 183.739 L 77.152 183.739 Q 79.515 184.772 80.88 186.557 L 80.88 186.557 L 80.88 186.557 Q 82.245 188.342 82.91 190.459 L 82.91 190.459 L 82.91 190.459 Q 83.575 192.577 83.575 194.957 L 83.575 194.957 L 83.575 194.957 Q 83.575 196.707 83.208 198.387 L 83.208 198.387 L 83.208 198.387 Q 82.84 200.067 81.93 201.694 L 81.93 201.694 L 81.93 201.694 Q 81.02 203.322 79.69 204.529 L 79.69 204.529 L 79.69 204.529 Q 78.36 205.737 76.26 206.472 L 76.26 206.472 L 76.26 206.472 Q 74.16 207.207 71.57 207.207 L 71.57 207.207 L 63.45 207.207 Z M 68.175 202.727 L 72.13 202.727 L 72.13 202.727 Q 75.455 202.727 77.065 200.399 L 77.065 200.399 L 77.065 200.399 Q 78.675 198.072 78.675 194.957 L 78.675 194.957 L 78.675 194.957 Q 78.675 191.772 77.1 189.479 L 77.1 189.479 L 77.1 189.479 Q 75.525 187.187 72.515 187.187 L 72.515 187.187 L 68.175 187.187 L 68.175 202.727 Z M 95.615 207.627 L 95.615 207.627 L 95.615 207.627 Q 91.73 207.627 89.49 205.142 L 89.49 205.142 L 89.49 205.142 Q 87.25 202.657 87.25 198.247 L 87.25 198.247 L 87.25 198.247 Q 87.25 193.942 89.508 191.422 L 89.508 191.422 L 89.508 191.422 Q 91.765 188.902 95.615 188.902 L 95.615 188.902 L 95.615 188.902 Q 99.115 188.902 101.32 191.054 L 101.32 191.054 L 101.32 191.054 Q 103.525 193.207 103.525 197.337 L 103.525 197.337 L 103.525 197.337 Q 103.525 199.052 103.385 200.032 L 103.385 200.032 L 91.73 200.032 L 91.73 200.032 Q 91.87 201.712 92.973 202.674 L 92.973 202.674 L 92.973 202.674 Q 94.075 203.637 95.615 203.637 L 95.615 203.637 L 95.615 203.637 Q 97.995 203.637 99.465 201.782 L 99.465 201.782 L 102.265 204.617 L 102.265 204.617 Q 99.78 207.627 95.615 207.627 Z M 91.765 196.182 L 91.765 196.182 L 99.08 196.182 L 99.08 196.182 Q 98.87 194.642 97.943 193.767 L 97.943 193.767 L 97.943 193.767 Q 97.015 192.892 95.615 192.892 L 95.615 192.892 L 95.615 192.892 Q 92.185 192.892 91.765 196.182 Z M 119.38 207.207 L 114.83 207.207 L 106.15 182.707 L 111.26 182.707 L 116.65 198.737 L 116.65 198.737 Q 116.86 199.367 117.14 200.417 L 117.14 200.417 L 117.14 200.417 Q 117.28 199.787 117.595 198.737 L 117.595 198.737 L 122.985 182.707 L 128.025 182.707 L 119.38 207.207 Z M 139.19 207.627 L 139.19 207.627 L 139.19 207.627 Q 135.305 207.627 133.065 205.142 L 133.065 205.142 L 133.065 205.142 Q 130.825 202.657 130.825 198.247 L 130.825 198.247 L 130.825 198.247 Q 130.825 193.942 133.082 191.422 L 133.082 191.422 L 133.082 191.422 Q 135.34 188.902 139.19 188.902 L 139.19 188.902 L 139.19 188.902 Q 142.69 188.902 144.895 191.054 L 144.895 191.054 L 144.895 191.054 Q 147.1 193.207 147.1 197.337 L 147.1 197.337 L 147.1 197.337 Q 147.1 199.052 146.96 200.032 L 146.96 200.032 L 135.305 200.032 L 135.305 200.032 Q 135.445 201.712 136.548 202.674 L 136.548 202.674 L 136.548 202.674 Q 137.65 203.637 139.19 203.637 L 139.19 203.637 L 139.19 203.637 Q 141.57 203.637 143.04 201.782 L 143.04 201.782 L 145.84 204.617 L 145.84 204.617 Q 143.355 207.627 139.19 207.627 Z M 135.34 196.182 L 135.34 196.182 L 142.655 196.182 L 142.655 196.182 Q 142.445 194.642 141.517 193.767 L 141.517 193.767 L 141.517 193.767 Q 140.59 192.892 139.19 192.892 L 139.19 192.892 L 139.19 192.892 Q 135.76 192.892 135.34 196.182 Z M 151.475 207.207 L 151.475 182.707 L 159.735 182.707 L 159.735 182.707 Q 162.815 182.707 165.178 183.739 L 165.178 183.739 L 165.178 183.739 Q 167.54 184.772 168.905 186.557 L 168.905 186.557 L 168.905 186.557 Q 170.27 188.342 170.935 190.459 L 170.935 190.459 L 170.935 190.459 Q 171.6 192.577 171.6 194.957 L 171.6 194.957 L 171.6 194.957 Q 171.6 196.707 171.233 198.387 L 171.233 198.387 L 171.233 198.387 Q 170.865 200.067 169.955 201.694 L 169.955 201.694 L 169.955 201.694 Q 169.045 203.322 167.715 204.529 L 167.715 204.529 L 167.715 204.529 Q 166.385 205.737 164.285 206.472 L 164.285 206.472 L 164.285 206.472 Q 162.185 207.207 159.595 207.207 L 159.595 207.207 L 151.475 207.207 Z M 156.2 202.727 L 160.155 202.727 L 160.155 202.727 Q 163.48 202.727 165.09 200.399 L 165.09 200.399 L 165.09 200.399 Q 166.7 198.072 166.7 194.957 L 166.7 194.957 L 166.7 194.957 Q 166.7 191.772 165.125 189.479 L 165.125 189.479 L 165.125 189.479 Q 163.55 187.187 160.54 187.187 L 160.54 187.187 L 156.2 187.187 L 156.2 202.727 Z M 183.64 207.627 L 183.64 207.627 L 183.64 207.627 Q 179.755 207.627 177.515 205.142 L 177.515 205.142 L 177.515 205.142 Q 175.275 202.657 175.275 198.247 L 175.275 198.247 L 175.275 198.247 Q 175.275 193.942 177.532 191.422 L 177.532 191.422 L 177.532 191.422 Q 179.79 188.902 183.64 188.902 L 183.64 188.902 L 183.64 188.902 Q 187.14 188.902 189.345 191.054 L 189.345 191.054 L 189.345 191.054 Q 191.55 193.207 191.55 197.337 L 191.55 197.337 L 191.55 197.337 Q 191.55 199.052 191.41 200.032 L 191.41 200.032 L 179.755 200.032 L 179.755 200.032 Q 179.895 201.712 180.998 202.674 L 180.998 202.674 L 180.998 202.674 Q 182.1 203.637 183.64 203.637 L 183.64 203.637 L 183.64 203.637 Q 186.02 203.637 187.49 201.782 L 187.49 201.782 L 190.29 204.617 L 190.29 204.617 Q 187.805 207.627 183.64 207.627 Z M 179.79 196.182 L 179.79 196.182 L 187.105 196.182 L 187.105 196.182 Q 186.895 194.642 185.967 193.767 L 185.967 193.767 L 185.967 193.767 Q 185.04 192.892 183.64 192.892 L 183.64 192.892 L 183.64 192.892 Q 180.21 192.892 179.79 196.182 Z"/>
</svg>
